X: 40414
T: Tom McElvogue's
R: jig
M: 6/8
K: Eminor
EGB FAd|Be^d efg|EGB FAd|BGE FDc|
BEG FAd|Be^d efg|eBd cBA|BGF E3:|
Bee fga|bge afd|Bee fac'|bge fdc|
Bee fga|bge afd|eBd cBA|BGF E3:|

